X: 4
T: Mary O'Neill's Fancy
R: reel
M: 4/4
L: 1/8
K: Gmaj
ge|dBAB ~G3E|DG~G2 DGBc|dBAB ~G3A|Beed eage|
dBAB ~G3E|DG~G2 DGBc|dBAB ~G3A|Beed e2ge||
dB~B2 dBge|dB~B2 ~d3e|dB~B2 gfgd|egdB A2Bc|
dB~B2 gB~B2|edef gfga|bgaf gfed|egfa gf||
